remix/Development/bug-2-fill.svg

<svg viewBox="0 0 24 24" fill="currentColor" xmlns="http://www.w3.org/2000/svg"><path d="M5.07089 16C5.02417 15.6734 5 15.3395 5 15V14H3V12H5V11C5 10.6605 5.02417 10.3266 5.07089 10H3V8.00001H5.67363C6.28647 6.70996 7.28227 5.6371 8.51412 4.92834L7.46447 3.87869L8.87868 2.46448L10.5621 4.14785C11.0262 4.05095 11.5071 4.00001 12 4.00001C12.4929 4.00001 12.9738 4.05095 13.4379 4.14785L15.1213 2.46448L16.5355 3.87869L15.4859 4.92834C16.7177 5.6371 17.7135 6.70996 18.3264 8.00001H21V10H18.9291C18.9758 10.3266 19 10.6605 19 11V12H21V14H19V15C19 15.3395 18.9758 15.6734 18.9291 16H21V18H18.3264C17.2029 20.365 14.7924 22 12 22C9.2076 22 6.7971 20.365 5.67363 18H3V16H5.07089ZM9 10V12H15V10H9ZM9 14V16H15V14H9Z"/></svg>

<svg viewBox="0 0 24 24" xmlns="http://www.w3.org/2000/svg"><path fill="none" d="M0 0h24v24H0Z"/><path d="M5.07 16l-.001-.001c-.05-.34-.08-.67-.07-1v-1h-2v-2h2v-1c0-.34.02-.673.07-1h-2.07v-2h2.67 -.001c.61-1.29 1.6-2.36 2.84-3.072L7.45 3.87l1.41-1.42 1.68 1.68h-.001c.94-.2 1.92-.2 2.87 0l1.68-1.69L16.5 3.86l-1.05 1.05h-.001c1.23.71 2.22 1.78 2.83 3.07h2.67v2h-2.07c.04.32.07.66.07 1v1h2v2h-2v1c0 .34-.03.673-.07 1h2.07v2h-2.68v0c-1.66 3.49-5.83 4.98-9.33 3.32 -1.47-.7-2.64-1.87-3.33-3.33H2.93v-2H5ZM9 10v2h6v-2H9Zm0 4v2h6v-2H9Z"/></svg>
